X: 093
T: Send us Whisky, a Jig
C: attr. John French (1753-1803)
R: jig
B: "John French Collection", John French ed. p.9 #3
S: http://www.heallan.com/french.asp
Z: 2012 John Chambers <jc:trillian.mit.edu>
M: 12/8
L: 1/8
K: F
B | cAF (TFEF) CFA cAF | BdB AcA dBA GBd | cAF (TFEF) CFA cAF | BAB Gge fFF F2 :|
e | (Tfef) gec Bdf cAF | BdB AcA dBG G2e | (Tfef) gec Bdf cAF | BAB GcB AFF F2 ||
e | (Tfef) gec Bdf cAF | BdB AcA dBG G2e | faf gbg afd cBA | BAB Gge fFF F2 |]

%%sep 2 1 500
%%sep 1 1 500

